X:1
T:Title
%%score ( 1 2 ) { 3 | 4 }
L:1/8
Q:1/4=102
M:4/4
K:D
V:1 treble nm="Grand Piano, Soprano"
V:2 treble 
V:3 bass nm="Choir Pad, Van Nuys, LM"
V:4 bass 
V:1
 [FA]2 [FA]2- [FA][EG] [DF]2- | [DF][A,E]DC DE [DF]2- | [DF][DF] [DG]2- [DG][DA][DB][DB] | %3
w: By~John~R.~Bryant,~1895 * * * *|||
 [DA][DF] [CE]6 | [GA]2 [FA]2- [FA][EG] [DF]2- | [DF][A,E]DC DE [DF]2- | %6
w: |||
 [DF][DF] [DG]2- [DG][DB][DA][DA] | [DF][CE] D4- DA | z2 d6 | z2 B6 | %10
w: ||||
 [GB]2 [FA]2- [FA][FA][GB][FA] | [DF]D [CE]4- [CE]A | z2 d6 | z2 B6 | %14
w: ||||
 [GB]2 [FA]2- [FA][FA][GB][FA] | z2[K:bass] D6- | D6 z2 |] %17
w: |||
V:2
 x8 | z2 A,2 A,2 z2 | x8 | x8 | x8 | z2 A,2 A,2 z2 | x8 | x8 | AA z F FGFA | AA z G GG G2 | x8 | %11
 x8 | AA z F =FG^FA | AA z G GG G2 | x8 | [DF][CE][K:bass] z A, B,B, A,2- | A,6 z2 |] %17
V:3
 D2 D2- DA, A,2- | A,G,F,A, A,2 A,2- | A,A, G,2- G,F,G,G, | F,A, A,6 | C2 D2- DA, A,2- | %5
 A,G,F,A, A,2 A,2- | A,A, G,2- G,G,F,F, | A,G, F,6 | z2 z A, ^G,B, .A,2 | z2 z[K:treble] D DD D2 | %10
 D2 D2- DD[K:bass]DD | A,F, A,6 | z2 z A, ^G,B, .A,2 | z2 z[K:treble] D DD D2 | %14
 D2 D2- DDD[K:bass]A, | A,G,F,F, G,G, F,2- | F,6 z2 |] %17
V:4
 D,2 D,2- D,D, D,2- | D,D,D,G, F,C, D,2- | D,=C, B,,2- B,,A,,G,,G,, | D,D, A,,6 | %4
 A,,2 D,2- D,D, D,2- | D,D,D,G, F,E, D,2- | D,=C, B,,2- B,,G,,A,,A,, | A,,A,, D,6 | %8
 z2 z D, D,D, .D,2 | z2 z E, E,E, E,2 | G,2 D,2- D,D,D,D, | D,D, A,,6 | z2 z D, D,D, .D,2 | %13
 z2 z G, G,G, G,2 | G,2 D,2- D,D,D,D, | A,,A,, D,6- | D,6 z2 |] %17

